X:1
T:On the Danforth B-part lower octave
R:Reel
M:C|
L:1/8
K:A
|:"A"E3 F E2 D2|C2 A,2 "Bm"B,2 D2|"A/C#"C2 A,2 "D"B,2 D2|"A/E"CB, A,2 "E"B,4|
"F#m"E3 F "E/G#"E2 D2|"A"C2 A,2 "D"B,2 D2|"A"CB, A,2 "E"B,2 G,2| "A"A,4 "D"A,4:|

%%scale .5
%%text 4/28/12 

#include "LeftHeader.h"
%%text Set 111 NEFFA 2012 Irish Reel Set
%%scale .8
$SmallLMargin
$SmallRMargin
